assets/img/braze_icons/music-note-01.svg

<svg fill="none" height="24" viewBox="0 0 24 24" width="24" xmlns="http://www.w3.org/2000/svg"><path d="m19.968 4.19884c-.1383.01091-.3286.04174-.6666.09808l-8.8 1.46667c-.2524.04205-.3869.06515-.4828.08867l-.0097.00243-.0008.01001c-.0074.09838-.0081.23492-.0081.49072v11.64458.0036c-.00196 2.2075-1.79207 3.9964-4 3.9964-2.20914 0-4-1.7909-4-4s1.79086-4 4-4c.72858 0 1.41166.1948 2 .5351v-8.2081c-.00002-.21611-.00005-.42995.0138-.61313.01541-.20374.05161-.44057.16141-.68534.15444-.34427.40313-.63783.71732-.84677.22338-.14854.45105-.22319.64948-.27188.17841-.04378.38934-.07891.60249-.11441l8.8629-1.47715c.2903-.04842.5679-.09471.8032-.11328.2541-.02005.5641-.0189.8858.10059.4383.16282.8058.4741 1.0385.87973.1707.2977.2228.6033.2448.85719.0204.23513.0203.51647.0203.81075v11.1467c0 .0557-.0045.1102-.0133.1634-.0857 2.1334-1.8423 3.8366-3.9967 3.8366-2.2091 0-4-1.7909-4-4s1.7909-4 4-4c.7327 0 1.4194.197 2.01.5409v-7.65214c0-.34271-.0009-.53552-.0128-.67365l-.0017-.01755z" fill="#801ed7"/></svg>

<svg width="24" height="24" viewBox="0 0 24 24" fill="none" xmlns="http://www.w3.org/2000/svg">
<path d="M19.968 4.19884C19.8297 4.20975 19.6394 4.24058 19.3014 4.29692L10.5014 5.76359C10.249 5.80564 10.1145 5.82874 10.0186 5.85226L10.0089 5.85469L10.0081 5.8647C10.0007 5.96308 10 6.09962 10 6.35542V18L10 18.0036C9.99804 20.2111 8.20793 22 6 22C3.79086 22 2 20.2091 2 18C2 15.7909 3.79086 14 6 14C6.72858 14 7.41166 14.1948 8 14.5351L8 6.327C7.99998 6.11089 7.99995 5.89705 8.0138 5.71387C8.02921 5.51013 8.06541 5.2733 8.17521 5.02853C8.32965 4.68426 8.57834 4.3907 8.89253 4.18176C9.11591 4.03322 9.34358 3.95857 9.54201 3.90988C9.72042 3.8661 9.93135 3.83097 10.1445 3.79547L19.0074 2.31832C19.2977 2.2699 19.5753 2.22361 19.8106 2.20504C20.0647 2.18499 20.3747 2.18614 20.6964 2.30563C21.1347 2.46845 21.5022 2.77973 21.7349 3.18536C21.9056 3.48306 21.9577 3.78866 21.9797 4.04255C22.0001 4.27768 22 4.55902 22 4.8533L22 16C22 16.0557 21.9955 16.1102 21.9867 16.1634C21.901 18.2968 20.1444 20 17.99 20C15.7809 20 13.99 18.2091 13.99 16C13.99 13.7909 15.7809 12 17.99 12C18.7227 12 19.4094 12.197 20 12.5409V4.88876C20 4.54605 19.9991 4.35324 19.9872 4.21511L19.9855 4.19756L19.968 4.19884Z" fill="#801ED7"/>
</svg>
